packages/elvis-assets-icons/icons/svg/src/question_circle.svg

<svg width="24" height="24" viewBox="0 0 24 24" fill="none" xmlns="http://www.w3.org/2000/svg">
<path d="M12 15C11.586 15 11.25 14.664 11.25 14.25V13.244C11.249 12.292 11.852 11.439 12.75 11.122C13.647 10.805 14.25 9.95201 14.25 9.00101C14.25 8.40001 14.016 7.83501 13.591 7.41001C13.167 6.98501 12.602 6.75101 12 6.75101C11.399 6.75101 10.834 6.98501 10.409 7.41001C9.984 7.83401 9.75 8.39901 9.75 9.00001C9.75 9.41301 9.414 9.75001 9 9.75001C8.586 9.75001 8.25 9.41301 8.25 9.00001C8.25 7.99801 8.641 7.05701 9.349 6.34901C10.057 5.64101 10.999 5.25101 12 5.25101C14.068 5.25101 15.75 6.93401 15.75 9.00101C15.75 10.587 14.745 12.007 13.25 12.536C12.951 12.642 12.75 12.926 12.75 13.243V14.25C12.75 14.664 12.414 15 12 15Z" fill="black"/>
<path d="M12 18.75C12.6213 18.75 13.125 18.2463 13.125 17.625C13.125 17.0037 12.6213 16.5 12 16.5C11.3787 16.5 10.875 17.0037 10.875 17.625C10.875 18.2463 11.3787 18.75 12 18.75Z" fill="black"/>
<path d="M12 24C5.383 24 0 18.617 0 12C0 5.383 5.383 0 12 0C18.617 0 24 5.383 24 12C24 18.617 18.617 24 12 24ZM12 1.5C6.21 1.5 1.5 6.21 1.5 12C1.5 17.79 6.21 22.5 12 22.5C17.79 22.5 22.5 17.79 22.5 12C22.5 6.21 17.79 1.5 12 1.5Z" fill="black"/>
</svg>

<svg width="24" height="24" fill="none" xmlns="http://www.w3.org/2000/svg"><path d="M12 15a.75.75 0 01-.75-.75v-1.006a2.251 2.251 0 011.5-2.122 2.254 2.254 0 001.5-2.121c0-.601-.234-1.166-.659-1.591A2.232 2.232 0 0012 6.751c-.601 0-1.166.234-1.591.659A2.231 2.231 0 009.75 9a.75.75 0 01-1.5 0c0-1.002.391-1.943 1.099-2.651A3.725 3.725 0 0112 5.251a3.755 3.755 0 013.75 3.75 3.756 3.756 0 01-2.5 3.535.752.752 0 00-.5.707v1.007A.75.75 0 0112 15zM12 18.75a1.125 1.125 0 100-2.25 1.125 1.125 0 000 2.25z" fill="#000"/><path d="M12 24C5.383 24 0 18.617 0 12S5.383 0 12 0s12 5.383 12 12-5.383 12-12 12zm0-22.5C6.21 1.5 1.5 6.21 1.5 12S6.21 22.5 12 22.5 22.5 17.79 22.5 12 17.79 1.5 12 1.5z" fill="#000"/></svg>
